Arcticons/scalable/apps/dkbtantogo.svg

<svg viewBox="0 0 48 48" xmlns="http://www.w3.org/2000/svg">
 <defs>
  <style>.a{fill:none;stroke:#fff;stroke-linecap:round;stroke-linejoin:round;}</style>
 </defs>
 <line class="a" x1="29.7" x2="29.7" y1="38.4" y2="27.2"/>
 <path class="a" d="m29.7 27.2h4.7a2.8 2.8 0 0 1 2.8 2.8 2.8 2.8 0 0 1-2.8 2.8h-4.7"/>
 <path class="a" d="m29.7 32.8h4.7a2.8 2.8 0 0 1 2.8 2.8 2.8 2.8 0 0 1-2.8 2.8h-4.7"/>
 <path class="a" d="m10.8 38.4v-11.2h1.9a5.59 5.59 0 0 1 5.6 5.6 5.59 5.59 0 0 1-5.6 5.6h-1.9z"/>
 <line class="a" x1="21.2" x2="21.2" y1="27.2" y2="38.4"/>
 <line class="a" x1="22.7" x2="26.8" y1="32.8" y2="27.3"/>
 <line class="a" x1="22.7" x2="26.8" y1="32.8" y2="38.4"/>
 <line class="a" x1="22.7" x2="21.2" y1="32.8" y2="32.8"/>
 <path class="a" d="m7.5 5.5h33a2 2 0 0 1 2 2v33a2 2 0 0 1-2 2h-33a2 2 0 0 1-2-2v-33a2 2 0 0 1 2-2z"/>
 <path class="a" d="m27.9 14.3h-0.6v-2.1a3.8 3.8 0 0 0-7.6 0v2.1h-0.6a1.37 1.37 0 0 0-1.4 1.4v7.3a1.37 1.37 0 0 0 1.4 1.4h8.8a1.37 1.37 0 0 0 1.4-1.4v-7.3a1.5 1.5 0 0 0-1.4-1.4zm-8.2 0h7.5"/>
</svg>

<svg xmlns="http://www.w3.org/2000/svg" viewBox="0 0 48 48"><defs><style>.a{fill:none;stroke:#fff;stroke-linecap:round;stroke-linejoin:round;}</style></defs><line class="a" x1="29.7" y1="38.4" x2="29.7" y2="27.2"/><path class="a" d="M29.7,27.2h4.7A2.8,2.8,0,0,1,37.2,30h0a2.8,2.8,0,0,1-2.8,2.8H29.7"/><path class="a" d="M29.7,32.8h4.7a2.8,2.8,0,0,1,2.8,2.8h0a2.8,2.8,0,0,1-2.8,2.8H29.7"/><path class="a" d="M10.8,38.4V27.2h1.9a5.59,5.59,0,0,1,5.6,5.6h0a5.59,5.59,0,0,1-5.6,5.6H10.8Z"/><line class="a" x1="21.2" y1="27.2" x2="21.2" y2="38.4"/><line class="a" x1="22.7" y1="32.8" x2="26.8" y2="27.3"/><line class="a" x1="22.7" y1="32.8" x2="26.8" y2="38.4"/><line class="a" x1="22.7" y1="32.8" x2="21.2" y2="32.8"/><path class="a" d="M7.5,5.5h33a2,2,0,0,1,2,2v33a2,2,0,0,1-2,2H7.5a2,2,0,0,1-2-2V7.5A2,2,0,0,1,7.5,5.5Z"/><path class="a" d="M27.9,14.3h-.6V12.2a3.8,3.8,0,0,0-7.6,0h0v2.1h-.6a1.37,1.37,0,0,0-1.4,1.4V23a1.37,1.37,0,0,0,1.4,1.4h8.8A1.37,1.37,0,0,0,29.3,23h0V15.7A1.5,1.5,0,0,0,27.9,14.3Zm-8.2,0h7.5"/></svg>
